cssgg/copyright.svg

<svg
  width="24"
  height="24"
  viewBox="0 0 24 24"
  fill="none"
  xmlns="http://www.w3.org/2000/svg"
>
  <path
    d="M13.392 10.4362L14.8106 9.0176C14.1031 8.38476 13.169 8 12.145 8C9.93588 8 8.14502 9.79086 8.14502 12C8.14502 14.2091 9.93588 16 12.145 16C13.2563 16 14.2617 15.5468 14.9866 14.8152L13.674 13.5026L13.4646 13.503C13.1124 13.8124 12.6506 14 12.145 14C11.0405 14 10.145 13.1046 10.145 12C10.145 10.8954 11.0405 10 12.145 10C12.6166 10 13.0501 10.1632 13.392 10.4362Z"
    fill="currentColor"
  />
  <path
    fill-rule="evenodd"
    clip-rule="evenodd"
    d="M12 3C16.9706 3 21 7.02944 21 12C21 16.9706 16.9706 21 12 21C7.02944 21 3 16.9706 3 12C3 7.02944 7.02944 3 12 3ZM12 5C15.866 5 19 8.13401 19 12C19 15.866 15.866 19 12 19C8.13401 19 5 15.866 5 12C5 8.13401 8.13401 5 12 5Z"
    fill="currentColor"
  />
</svg>

<svg viewBox="0 0 24 24" xmlns="http://www.w3.org/2000/svg"><g><path d="M13.39 10.43l1.41-1.42c-.71-.64-1.65-1.02-2.67-1.02 -2.21 0-4 1.79-4 4 0 2.2 1.79 4 3.99 4 1.11 0 2.11-.46 2.84-1.19l-1.32-1.32 -.21 0c-.36.3-.82.49-1.32.49 -1.11 0-2-.9-2-2 0-1.11.89-2 2-2 .47 0 .9.16 1.24.43Z"/><path fill-rule="evenodd" d="M12 3c4.97 0 9 4.02 9 9 0 4.97-4.03 9-9 9 -4.98 0-9-4.03-9-9 0-4.98 4.02-9 9-9Zm0 2c3.86 0 7 3.13 7 7 0 3.86-3.14 7-7 7 -3.87 0-7-3.14-7-7 0-3.87 3.13-7 7-7Z"/></g></svg>
